SVG-Logos/Security/qualys-wordmark.svg

<?xml version="1.0" encoding="UTF-8"?>
<svg width="934px" height="294px" viewBox="0 0 934 294" version="1.1" xmlns="http://www.w3.org/2000/svg" xmlns:xlink="http://www.w3.org/1999/xlink">
    <!-- Generator: Sketch 45.2 (43514) - http://www.bohemiancoding.com/sketch -->
    <title>Qualys-Horizontal</title>
    <desc>Created with Sketch.</desc>
    <defs>
        <polygon id="path-1" points="21.884 22.3389 21.884 0.6959 0.4676 0.6959 0.4676 22.3389 21.884 22.3389"></polygon>
    </defs>
    <g id="Page-1" stroke="none" stroke-width="1" fill="none" fill-rule="evenodd">
        <g id="Qualys-Horizontal">
            <g id="Logo-Horizontal">
                <path d="M123.0736,0.0004 C203.2306,0.0004 243.5346,42.8884 243.5346,42.8884 C243.5346,42.8884 248.1426,74.6344 245.2016,138.5554 C240.7586,235.1154 123.1016,293.1054 123.0916,293.1114 C123.0816,293.1164 5.4256,235.1154 0.9816,138.5554 C-1.9604,74.6344 2.6486,42.8884 2.6486,42.8884 C2.6486,42.8884 42.9156,0.0004 123.0736,0.0004" id="Fill-1" fill="#ED2E26"></path>
                <path d="M394.1781,196.538 C366.4931,196.538 343.9701,174.015 343.9701,146.33 C343.9701,118.646 366.4931,96.122 394.1781,96.122 C421.8641,96.122 444.3871,118.646 444.3871,146.33 C444.3871,174.015 421.8641,196.538 394.1781,196.538 M394.1781,75.825 C355.3011,75.825 323.6721,107.454 323.6721,146.33 C323.6721,169.863 333.5621,190.832 352.2721,206.971 C369.7941,222.084 394.9211,232.503 423.9321,237.331 C428.0801,235.052 435.9261,227.362 438.4241,222.095 C417.0491,218.407 407.2461,214.748 407.2461,214.748 C407.2461,214.748 409.9831,214.637 415.4771,213.096 C444.0321,205.087 464.9651,176.882 464.6851,146.33 C464.3271,107.455 433.0561,75.825 394.1781,75.825" id="Fill-4" fill="#262626"></path>
                <g id="Group-8" transform="translate(912.000000, 186.111000)">
                    <mask id="mask-2" fill="white">
                        <use xlink:href="#path-1"></use>
                    </mask>
                    <g id="Clip-7"></g>
                    <path d="M9.5736,7.0549 L9.5736,10.5339 L11.6796,10.5339 C12.2886,10.5339 12.7686,10.3719 13.1196,10.0529 C13.4706,9.7329 13.6456,9.3139 13.6456,8.7939 C13.6456,7.6359 12.9906,7.0549 11.6796,7.0549 L9.5736,7.0549 Z M15.7516,8.7049 C15.7516,9.5889 15.5136,10.3449 15.0416,10.9669 C14.5686,11.5929 13.9216,12.0299 13.0976,12.2739 L16.1646,17.0789 L13.7836,17.0789 L10.9916,12.4109 L9.5736,12.4109 L9.5736,17.0789 L7.5596,17.0789 L7.5596,5.1779 L11.9526,5.1779 C13.0826,5.1779 13.9966,5.5009 14.6996,6.1409 C15.4006,6.7809 15.7516,7.6359 15.7516,8.7049 L15.7516,8.7049 Z M5.0436,17.8119 C6.6296,19.4269 8.6736,20.2359 11.1766,20.2359 C13.6776,20.2359 15.7196,19.4269 17.3066,17.8119 C18.8936,16.1929 19.6876,14.0879 19.6876,11.4959 C19.6876,8.9019 18.8936,6.8039 17.3066,5.2019 C15.7196,3.5999 13.6776,2.7989 11.1766,2.7989 C8.6736,2.7989 6.6296,3.5999 5.0436,5.2019 C3.4566,6.8039 2.6646,8.9019 2.6646,11.4959 C2.6646,14.0879 3.4566,16.1929 5.0436,17.8119 L5.0436,17.8119 Z M3.4876,3.7169 C5.5006,1.7019 8.0626,0.6959 11.1766,0.6959 C14.2876,0.6959 16.8496,1.7019 18.8646,3.7169 C20.8776,5.7279 21.8846,8.3239 21.8846,11.4959 C21.8846,14.6979 20.8776,17.3059 18.8646,19.3209 C16.8496,21.3349 14.2876,22.3389 11.1766,22.3389 C8.0626,22.3389 5.5006,21.3349 3.4876,19.3209 C1.4726,17.3059 0.4676,14.6979 0.4676,11.4959 C0.4676,8.3239 1.4726,5.7279 3.4876,3.7169 L3.4876,3.7169 Z" id="Fill-6" fill="#262626" mask="url(#mask-2)"></path>
                </g>
                <path d="M784.0863,178.7245 L760.2733,115.5365 L739.0543,115.5365 L773.8003,203.7365 C773.8003,203.7365 758.4293,240.2755 758.4353,240.2725 C768.5473,240.2725 779.6093,239.5585 783.9393,228.9025 C794.0903,203.9095 829.4433,115.5365 829.4433,115.5365 L808.2193,115.5365 L784.0863,178.7245 Z" id="Fill-9" fill="#262626"></path>
                <path d="M704.4935,210.246 C704.4935,210.246 724.1875,209.881 724.1875,196.517 L724.1875,76.484 L704.4935,76.484 L704.4935,210.246 Z" id="Fill-11" fill="#262626"></path>
                <path d="M634.1439,191.7655 C622.2369,191.7655 604.4239,183.8185 604.1489,161.9265 L604.1489,161.7695 C604.1489,144.4825 616.9029,131.4455 633.8159,131.4455 C646.4489,131.4455 656.7129,138.0405 661.3019,149.1555 C663.1069,152.9135 663.9739,157.3175 663.8119,161.8885 C663.6459,166.5325 662.6069,170.9665 660.7899,174.7575 C656.1519,185.4075 646.1909,191.7655 634.1439,191.7655 L634.1439,191.7655 Z M663.6459,127.9765 C658.1619,120.3275 647.4489,112.9035 631.6749,112.9035 C604.7549,112.9035 584.4539,133.8405 584.4539,161.6045 C584.4539,174.5815 588.8909,186.6405 596.9489,195.5605 C605.6639,205.2085 617.6719,210.3085 631.6749,210.3085 C645.2419,210.3085 656.8589,204.7745 663.6459,195.2945 L663.6459,210.2455 C663.6459,210.2455 683.3409,209.9335 683.3409,196.5275 L683.3409,115.5365 L663.6459,115.5365 L663.6459,127.9765 Z" id="Fill-13" fill="#262626"></path>
                <path d="M548.5677,166.8739 C548.5677,182.7779 540.3077,191.6189 525.3237,191.7659 C510.1257,191.7659 502.7367,183.1389 502.7367,165.3929 L502.7367,115.5369 L483.0427,115.5369 L483.0427,169.3439 C483.0427,177.1099 484.3507,188.1859 490.5897,196.8499 C496.9647,205.7029 507.0427,210.2309 520.5357,210.3089 C520.7197,210.3109 520.9047,210.3119 521.0887,210.3119 C537.2257,210.3119 545.5367,202.9959 549.5557,197.3109 L549.5557,210.2459 C549.5557,210.2459 568.2627,209.9269 568.2627,197.1849 L568.2627,115.5369 L548.5677,115.5369 L548.5677,166.8739 Z" id="Fill-15" fill="#262626"></path>
                <path d="M876.6615,152.9647 C866.4275,148.5407 858.9855,144.7147 859.1165,138.7797 C859.2035,134.8527 864.3755,131.0927 869.7535,131.2787 C875.5095,131.4767 879.7765,135.4467 882.1585,138.6217 C882.1585,138.6217 892.9185,129.4247 894.2205,128.4397 C888.6465,119.2117 879.1785,114.0157 868.5585,113.7817 C853.4135,113.4487 840.8245,125.3287 840.4955,140.2637 C840.2105,153.2007 847.7885,158.5407 857.7255,164.1767 L874.0825,173.3727 C877.8555,176.0117 879.6365,177.9827 879.5465,182.0417 C879.4065,188.4037 874.0865,192.5277 867.1945,192.9357 C862.1255,193.2347 857.9625,190.3037 854.0175,186.1757 C846.3415,178.1417 834.5575,182.0037 830.9525,183.1647 C838.4495,200.4047 852.6325,210.4437 866.8025,210.7567 C884.6455,211.1497 898.9195,197.9797 899.2995,180.7737 C899.4805,172.4917 895.8505,162.2037 876.6615,152.9647" id="Fill-17" fill="#262626"></path>
                <path d="M62.9242,126.9296 C62.9242,92.7876 89.9152,65.0116 123.0912,65.0116 C156.2952,65.0116 183.3082,92.0246 183.3082,125.2276 C183.3082,151.7356 160.5222,173.5436 142.9602,184.7506 C149.7732,188.6376 164.8092,192.7196 179.2052,194.0386 C200.2272,177.7696 213.0482,152.6206 213.0482,125.2276 C213.0482,75.6256 172.6942,35.2716 123.0912,35.2716 C73.4892,35.2716 33.1352,75.6256 33.1352,125.2276 C33.1352,155.1856 45.6092,181.7986 69.2072,202.1926 C91.2702,221.2576 123.5432,233.9836 160.2882,240.0086 C168.2492,235.6096 181.8642,222.6216 186.9702,215.0186 C156.2812,211.0716 127.2372,203.5876 107.7672,193.3736 C78.0122,177.7656 62.9242,155.4096 62.9242,126.9296" id="Fill-19" fill="#FFFFFF"></path>
            </g>
        </g>
    </g>
</svg>

<svg xmlns="http://www.w3.org/2000/svg" xmlns:xlink="http://www.w3.org/1999/xlink" viewBox="0 0 934 294"><defs><path id="a" d="M21.884 22.339V.696H.468v21.643h21.416z"/></defs><g fill="none" fill-rule="evenodd"><path fill="#ED2E26" d="M123.074 0c80.157 0 120.46 42.888 120.46 42.888s4.609 31.746 1.668 95.667c-4.443 96.56-122.1 154.55-122.11 154.556-.01.005-117.666-57.996-122.11-154.556-2.942-63.92 1.667-95.667 1.667-95.667S42.916 0 123.074 0"/><path fill="#262626" d="M394.178 196.538c-27.685 0-50.208-22.523-50.208-50.208 0-27.684 22.523-50.208 50.208-50.208 27.686 0 50.21 22.524 50.21 50.208 0 27.685-22.524 50.208-50.21 50.208m0-120.713c-38.877 0-70.506 31.629-70.506 70.505 0 23.533 9.89 44.502 28.6 60.641 17.522 15.113 42.65 25.532 71.66 30.36 4.148-2.279 11.994-9.969 14.492-15.236-21.375-3.688-31.178-7.347-31.178-7.347s2.737-.111 8.231-1.652c28.555-8.009 49.488-36.214 49.208-66.766-.358-38.875-31.629-70.505-70.507-70.505"/><g transform="translate(912 186.111)"><mask id="b" fill="#fff"><use xlink:href="#a"/></mask><path fill="#262626" d="M9.574 7.055v3.479h2.106c.609 0 1.089-.162 1.44-.481.35-.32.526-.74.526-1.26 0-1.157-.655-1.738-1.966-1.738H9.574Zm6.178 1.65c0 .884-.238 1.64-.71 2.262-.473.626-1.12 1.063-1.944 1.307l3.067 4.805h-2.381l-2.792-4.668H9.574v4.668H7.56V5.178h4.393c1.13 0 2.044.323 2.747.963.7.64 1.052 1.495 1.052 2.564ZM5.044 17.812c1.586 1.615 3.63 2.424 6.133 2.424 2.5 0 4.543-.81 6.13-2.424 1.587-1.62 2.38-3.724 2.38-6.316 0-2.594-.793-4.692-2.38-6.294-1.587-1.602-3.63-2.403-6.13-2.403-2.503 0-4.547.8-6.133 2.403-1.587 1.602-2.38 3.7-2.38 6.294 0 2.592.793 4.697 2.38 6.316ZM3.488 3.717C5.5 1.702 8.063.696 11.177.696c3.11 0 5.673 1.006 7.688 3.02 2.013 2.012 3.02 4.608 3.02 7.78 0 3.202-1.007 5.81-3.02 7.825-2.015 2.014-4.577 3.018-7.688 3.018-3.114 0-5.676-1.004-7.69-3.018-2.014-2.015-3.02-4.623-3.02-7.825 0-3.172 1.006-5.768 3.02-7.78Z" mask="url(#b)"/></g><path fill="#262626" d="m784.086 178.725-23.813-63.188h-21.219l34.746 88.2s-15.37 36.538-15.365 36.536c10.112 0 21.174-.714 25.504-11.37 10.151-24.993 45.504-113.366 45.504-113.366H808.22l-24.133 63.188ZM704.494 210.246s19.693-.365 19.693-13.729V76.484h-19.693v133.762ZM634.144 191.766c-11.907 0-29.72-7.947-29.995-29.84v-.156c0-17.288 12.754-30.325 29.667-30.325 12.633 0 22.897 6.596 27.486 17.71 1.805 3.758 2.672 8.162 2.51 12.733-.166 4.644-1.205 9.078-3.022 12.87-4.638 10.65-14.6 17.007-26.646 17.007Zm29.502-63.79c-5.484-7.648-16.197-15.073-31.971-15.073-26.92 0-47.221 20.937-47.221 48.701 0 12.977 4.437 25.036 12.495 33.956 8.715 9.648 20.723 14.749 34.726 14.749 13.567 0 25.184-5.535 31.97-15.014v14.95s19.696-.311 19.696-13.718v-80.99h-19.695v12.44ZM548.568 166.874c0 15.904-8.26 24.745-23.244 24.892-15.198 0-22.587-8.627-22.587-26.373v-49.856h-19.694v53.807c0 7.766 1.308 18.842 7.547 27.506 6.375 8.853 16.453 13.38 29.946 13.459.184.002.369.003.553.003 16.137 0 24.448-7.316 28.467-13.001v12.935s18.707-.32 18.707-13.061v-81.648h-19.695v51.337ZM876.662 152.965c-10.235-4.424-17.677-8.25-17.546-14.185.087-3.927 5.26-7.687 10.638-7.501 5.755.198 10.023 4.168 12.404 7.343 0 0 10.76-9.197 12.063-10.182-5.575-9.228-15.043-14.424-25.663-14.658-15.144-.333-27.734 11.547-28.063 26.482-.284 12.937 7.293 18.277 17.23 23.913l16.357 9.196c3.774 2.639 5.554 4.61 5.465 8.669-.14 6.362-5.46 10.486-12.353 10.894-5.068.299-9.231-2.632-13.176-6.76-7.677-8.034-19.46-4.172-23.066-3.011 7.497 17.24 21.68 27.279 35.85 27.592 17.843.393 32.117-12.777 32.497-29.983.182-8.282-3.448-18.57-22.637-27.81"/><path fill="#FFF" d="M62.924 126.93c0-34.142 26.991-61.918 60.167-61.918 33.204 0 60.217 27.013 60.217 60.216 0 26.508-22.786 48.316-40.348 59.523 6.813 3.887 21.85 7.969 36.245 9.288 21.022-16.27 33.843-41.418 33.843-68.811 0-49.602-40.354-89.956-89.957-89.956-49.602 0-89.956 40.354-89.956 89.956 0 29.958 12.474 56.57 36.072 76.965 22.063 19.065 54.336 31.79 91.081 37.816 7.961-4.4 21.576-17.387 26.682-24.99-30.689-3.947-59.733-11.431-79.203-21.645-29.755-15.608-44.843-37.964-44.843-66.444"/></g></svg>
